!!!OTL: Der himmlische Ackersmann (Band 1), S. 155
!!!id: P0826
**kern
*clefG2
*k[f#]
*e:
{8g
8e
=1
4e
4e
4e
=2
4b
4b
4a
=3
2b
8a
8b
=4
2g}
=5
{4a
=6
2a
4b
=7
4cc
4b
4a
=8
4g
4e
4f#
=9
2e}
4r
=10
{[2a
8.a]
16b
=11
4g
4f#
8.e
16d
=12
2d}
=13
{4d
=14
4g
4g
4a
=15
4b
4b
4a
=16
4g
4e
4f#
=17
2e}
==
*-
!!!minrhy: 16
!!!meters: 3/4 ]  ZZ[4
!!!cut: Der himmlische Ackersmann (Band 1), S. 155
!!!reg: Lothringen
!!!trd: PINCK, Louis: Verklingende Weisen, Bd 1, Metz 1928
!!!rhy1: X_X_  X__X__X__  X__X__X__  X___X_X_  X___   (x2)
!!!rhy2: X__  X___X__  X__X__X__  X__X__X__  X___0_
!!!key: P0826  16  E 3/4 ]  ZZ[4
!!!mod: HEPTATONIK AEOLISCH]  AMBITUS[7b
!!!kad: 3b1-7b1
!!!akz: 1553b_46b3b1_43b-7b_3b53b1_
!!!fot: 'a__b__c__d__
!!!for: 'a__b__c__d__
!!!fok: 'S__^d_\__^a_
!! PHRAS[VORWIEGEND AUFTAKTIG]
!!!fkt: geistliches, religiöses Lied
!! LOTH VKL
!! PR[30] 2K[10] 2G[13] 3K[3] 3G[0] 4A[3] 4Ü[0] 5A[0] 6K[0] 6G[0]
!! 7K[0] 7G[0] 8A[0] MEHR[0] SI[30] ABS[30] SR[23] SP[7]
!! ST[8] 2k[13] 2g[13] 3k[7] 3g[7] 4d[0] 4ü[0] 5d[0] 6k[0] 6g[0]
!! 7k[0] 7g[0] 8d[0] mehr[0] si[40] dm[-10] sr[27] sp[13]
!! 1F[74] 2F[15] 3F[3] 4F[0] LF[0] 2P[9] 3P[0] 4P[0] TRI[0] DF[4] AB[34]
!! TF[0] U3K[0] U3[0] U4[0] U4Ü[0] U5[0] U6K[0] U6[0] U7K[0] U7[0]
!! N1[13] N2K[0] N2[16] N3K[13] N3[0] N4[19] N4Ü[0] N5[32] N6K[6] N6[0]
!!!n7k: 0] N7[0] O1[0] O2K[0] O2[0] O3K[0] O3[0] HÖ[0
